X: 16
T: Tripping Up The Stairs
Z: Will The Whistler
S: https://thesession.org/tunes/111#setting50611
R: jig
M: 6/8
L: 1/8
K: Dmaj
|: ~F3 ~G3 | FAd fed | cBc ABc | dfe dAG |
~F3 ~G3 | FAd fed | cBc ABc | dfe d3 :|
|: dBB fBB|~f3 fed|cAA eAA|~e3 edc|
dBB fBB|~f3 fed|cBc ABc|dfe d3:|

